X:1
T:Psalm 96
T:V 5
L:1/4
M:14/4
I:linebreak $
K:C
V:1 treble nm="Pipe Organ" snm="Org."
V:1
 A2 A G ^F2 B2 A G F3 z |$[M:12/4] D2 ^F G A A B2 A3 z |$ A2 ^F F D F E2 D3 z |$ %3
w: Gee aan sy Naam die hoog- ste eer.|Bring aan uit al- le lan- de|sy tem- pel- of- fe- ran- de;|
[M:14/4] A2 B B ^c2 A2 B c d3 z |$[M:12/4] A2 B B A2 G2 ^F3 z |$ D2 E G ^F2 E2 D4 |] %6
w: buig daar in heil'- ge kle- ding neer!|Die aar- de- al wat leef,|moet voor Hom skrik en beef.|

